X:1
T:The Day The Pub Burned Down
M:2/2
Q:1/4=150
Z: Contributed 2016-05-05 08:55:27 by Richard Mellish Richard@Mellish.eu
K:A
A,8|A,3CE2E2|F2EE3E2|E2E2F2E2|G6E2|E3EF2E2|
B2G2E4|E3EF2E2|C6A,2|A,3CE2E2|F2EE3E2|AA2B3A2|
F6F2|A3AB2A2|c2A2E3C|E3DC2B,2|A,11/2||
